assets/icons/informations/home_fill.svg

<svg viewBox="0 0 24 24" xmlns="http://www.w3.org/2000/svg">
<path d="M6 21C5.45 21 4.97933 20.8043 4.588 20.413C4.196 20.021 4 19.55 4 19V10C4 9.68333 4.071 9.38333 4.213 9.1C4.35433 8.81667 4.55 8.58333 4.8 8.4L10.8 3.9C10.9833 3.76667 11.175 3.66667 11.375 3.6C11.575 3.53333 11.7833 3.5 12 3.5C12.2167 3.5 12.425 3.53333 12.625 3.6C12.825 3.66667 13.0167 3.76667 13.2 3.9L19.2 8.4C19.45 8.58333 19.646 8.81667 19.788 9.1C19.9293 9.38333 20 9.68333 20 10V19C20 19.55 19.8043 20.021 19.413 20.413C19.021 20.8043 18.55 21 18 21H14V14H10V21H6Z" fill="inherit"/>
</svg>

<svg viewBox="0 0 24 24" xmlns="http://www.w3.org/2000/svg"><path d="M6 21a2 2 0 0 1-1.4-.6A2 2 0 0 1 4 19v-9a2 2 0 0 1 .8-1.6l6-4.5.6-.3a2 2 0 0 1 1.2 0l.6.3 6 4.5.6.7.2.9v9c0 .6-.2 1-.6 1.4a2 2 0 0 1-1.4.6h-4v-7h-4v7H6Z" fill="inherit"/></svg>
